icons/black/we_share.svg

<?xml version="1.0" encoding="UTF-8"?><svg id="a" xmlns="http://www.w3.org/2000/svg" viewBox="0 0 48 48"><defs><style>.b{fill:none;stroke:#000;stroke-linecap:round;stroke-linejoin:round;}</style></defs><rect class="b" x="5.5" y="5.5" width="37" height="37" rx="4" ry="4"/><polyline class="b" points="25.9155 14.7342 23.5241 24.2996 21.1328 14.7342 18.7414 24.2996 16.3501 14.7342"/><path class="b" d="M31.3364,23.0928c-.4119.7209-1.1881,1.2068-2.0778,1.2068h0c-1.3207,0-2.3914-1.0706-2.3914-2.3914v-1.5544c0-1.3207,1.0706-2.3914,2.3914-2.3914h0c1.3207,0,2.3914,1.0706,2.3914,2.3914v.7772s-4.7827,0-4.7827,0"/><line class="b" x1="15.9869" y1="23.7004" x2="15.9869" y2="33.2658"/><path class="b" d="M15.9869,29.3201c0-1.3207,1.0706-2.3914,2.3914-2.3914h0c1.3207,0,2.3914,1.0706,2.3914,2.3914v3.9457"/><path class="b" d="M30.0242,29.3201c0-1.3207,1.0706-2.3914,2.3914-2.3914h0"/><line class="b" x1="30.0242" y1="26.9287" x2="30.0242" y2="33.2658"/><path class="b" d="M9.6506,32.7312c.4366.3666.9081.5347,1.9667.5347h.5365c.8731,0,1.5809-.7093,1.5809-1.5843h0c0-.875-.7078-1.5843-1.5809-1.5843h-1.073c-.8731,0-1.5809-.7093-1.5809-1.5843h0c0-.875.7078-1.5843,1.5809-1.5843h.5365c1.0587,0,1.5301.168,1.9667.5347"/><path class="b" d="M38.1865,32.0591c-.4119.7209-1.1881,1.2068-2.0778,1.2068h0c-1.3207,0-2.3914-1.0706-2.3914-2.3914v-1.5544c0-1.3207,1.0706-2.3914,2.3914-2.3914h0c1.3207,0,2.3914,1.0706,2.3914,2.3914v.7772s-4.7827,0-4.7827,0"/><path class="b" d="M27.6664,30.8745c0,1.3207-1.0706,2.3914-2.3914,2.3914h0c-1.3207,0-2.3914-1.0706-2.3914-2.3914v-1.5544c0-1.3207,1.0706-2.3914,2.3914-2.3914h0c1.3207,0,2.3914,1.0706,2.3914,2.3914"/><line class="b" x1="27.6664" y1="33.2658" x2="27.6664" y2="26.9287"/></svg>

<svg xmlns="http://www.w3.org/2000/svg" viewBox="0 0 48 48"><defs><style>.a{fill:none;stroke:#000;stroke-linecap:round;stroke-linejoin:round;}</style></defs><rect class="a" x="5.5" y="5.5" width="37" height="37" rx="2"/><polyline class="a" points="25.915 14.734 23.524 24.3 21.133 14.734 18.741 24.3 16.35 14.734"/><path class="a" d="M31.3364,23.0928A2.3905,2.3905,0,0,1,29.2586,24.3h0a2.3914,2.3914,0,0,1-2.3914-2.3914V20.3539a2.3914,2.3914,0,0,1,2.3914-2.3914h0A2.3913,2.3913,0,0,1,31.65,20.3539v.7771H26.8672"/><line class="a" x1="15.9869" y1="23.7004" x2="15.9869" y2="33.2658"/><path class="a" d="M15.9869,29.32a2.3914,2.3914,0,0,1,2.3914-2.3914h0A2.3914,2.3914,0,0,1,20.77,29.32v3.9457"/><path class="a" d="M30.0242,29.32a2.3914,2.3914,0,0,1,2.3913-2.3914h0"/><line class="a" x1="30.0242" y1="26.9287" x2="30.0242" y2="33.2658"/><path class="a" d="M9.6506,32.7312a2.69,2.69,0,0,0,1.9668.5346h.5365a1.5826,1.5826,0,0,0,1.5808-1.5842h0a1.5826,1.5826,0,0,0-1.5808-1.5843h-1.073A1.5826,1.5826,0,0,1,9.5,28.513h0a1.5826,1.5826,0,0,1,1.5809-1.5843h.5365a2.6894,2.6894,0,0,1,1.9667.5347"/><path class="a" d="M38.1865,32.0591a2.39,2.39,0,0,1-2.0779,1.2067h0a2.3913,2.3913,0,0,1-2.3913-2.3913V29.32a2.3914,2.3914,0,0,1,2.3913-2.3914h0A2.3914,2.3914,0,0,1,38.5,29.32v.7772H33.7173"/><path class="a" d="M27.6664,30.8745a2.3914,2.3914,0,0,1-2.3914,2.3913h0a2.3913,2.3913,0,0,1-2.3913-2.3913V29.32a2.3914,2.3914,0,0,1,2.3913-2.3914h0A2.3914,2.3914,0,0,1,27.6664,29.32"/><line class="a" x1="27.6664" y1="33.2658" x2="27.6664" y2="26.9287"/></svg>
